img/svg/events/landing-present.svg

<svg width="75" height="75" viewBox="0 0 75 75" fill="none" xmlns="http://www.w3.org/2000/svg">
<g clip-path="url(#clip0_10369_71297)">
<path d="M9.9818 34.1404L5.81424 57.7758C5.43083 59.9503 6.88836 62.0269 9.05888 62.4096L28.755 65.8826L33.6172 38.308L9.9818 34.1404ZM67.9094 28.1078L55.4457 25.9101C56.4475 25.4572 57.3227 24.986 57.9542 24.5369C61.6965 21.9027 62.6134 16.7029 59.9977 12.9476C57.4581 9.29108 52.0757 8.35015 48.444 10.9104C46.4322 12.3225 40.672 18.5001 40.4766 23.2707L40.193 23.2206C41.6371 18.6703 38.3371 10.8951 36.9335 8.8808C34.3925 5.23212 29.0115 4.28331 25.3798 6.84355C21.6414 9.47843 20.7246 14.6782 23.3323 18.4321C23.7762 19.0709 24.4374 19.8129 25.2239 20.5812L12.7602 18.3835C10.5897 18.0008 8.50907 19.4576 8.12634 21.6281L7.08446 27.537C6.89275 28.6242 7.61955 29.6622 8.70677 29.8539L34.3118 34.3687L35.701 26.4903L43.5794 27.8795L42.1902 35.7579L67.7952 40.2728C68.8825 40.4645 69.9204 39.7377 70.1122 38.6505L71.154 32.7416C71.5368 30.5711 70.0839 28.4912 67.9094 28.1078ZM36.1861 22.3801C36.1861 22.3801 35.9977 22.4809 35.4344 22.3816C32.7124 21.9016 28.0152 18.1571 26.6189 16.1481C25.2615 14.1947 25.7394 11.4845 27.683 10.1132C28.6244 9.45058 29.7618 9.19623 30.8884 9.39488C32.0111 9.59284 32.993 10.2209 33.6509 11.1655C35.835 14.3044 37.2713 21.5926 36.1861 22.3801ZM45.2312 24.109C44.6719 24.0104 44.5287 23.8552 44.5294 23.8512C43.7789 22.74 47.6212 16.3827 50.7472 14.18C52.6174 12.8567 55.396 13.3385 56.7151 15.2323C58.0765 17.1864 57.5986 19.8966 55.651 21.2672C53.6518 22.6775 47.9572 24.5897 45.2312 24.109ZM41.4956 39.6972L36.6335 67.2718L56.3297 70.7447C58.5041 71.1282 60.5801 69.6746 60.9635 67.5001L65.131 43.8647L41.4956 39.6972Z" fill="#00654D"/>
</g>
<defs>
<clipPath id="clip0_10369_71297">
<rect width="64" height="64" fill="white" transform="translate(11.9414) rotate(10)"/>
</clipPath>
</defs>
</svg>

<svg width="75" height="75" fill="none" xmlns="http://www.w3.org/2000/svg"><g clip-path="url(#clip0_10369_71297)"><path d="M9.982 34.14L5.814 57.776A4.004 4.004 0 009.06 62.41l19.696 3.473 4.862-27.575L9.982 34.14zm57.927-6.032L55.446 25.91c1.002-.453 1.877-.924 2.508-1.373 3.742-2.634 4.66-7.834 2.044-11.59-2.54-3.656-7.922-4.597-11.554-2.037-2.012 1.412-7.772 7.59-7.967 12.36l-.284-.05c1.444-4.55-1.856-12.325-3.26-14.34-2.54-3.648-7.921-4.597-11.553-2.036-3.739 2.634-4.655 7.834-2.048 11.588.444.639 1.105 1.38 1.892 2.15L12.76 18.383a4.007 4.007 0 00-4.634 3.244l-1.042 5.909a2 2 0 001.623 2.317l25.605 4.515L35.7 26.49l7.878 1.39-1.389 7.878 25.605 4.515a2 2 0 002.317-1.623l1.042-5.908a4.004 4.004 0 00-3.245-4.634zM36.186 22.38s-.188.1-.752.002c-2.722-.48-7.419-4.225-8.815-6.234a4.363 4.363 0 011.064-6.035 4.248 4.248 0 013.205-.718 4.246 4.246 0 012.763 1.77c2.184 3.14 3.62 10.428 2.535 11.215zm9.045 1.729c-.56-.099-.702-.254-.702-.258-.75-1.111 3.092-7.468 6.218-9.671 1.87-1.323 4.649-.841 5.968 1.052a4.355 4.355 0 01-1.064 6.035c-2 1.41-7.694 3.323-10.42 2.842zm-3.735 15.588l-4.863 27.575 19.697 3.473a4.001 4.001 0 004.634-3.245l4.167-23.635-23.635-4.168z" fill="#00654D"/></g><defs><clipPath id="clip0_10369_71297"><path fill="#fff" transform="rotate(10 5.97 68.245)" d="M0 0h64v64H0z"/></clipPath></defs></svg>
